X:1
T:Title
%%score { ( 1 4 ) | ( 2 3 ) }
L:1/8
M:3/4
K:F
V:1 treble nm="Grand Piano"
V:4 treble 
V:2 bass 
V:3 bass 
V:1
 z2 z2[Q:1/4=92] F>G | A3 A B>A | A2 F2 A>A | [EG]3 [EG] [DF]>[EG] | A4 F>G | A3 A B>A | %6
 A2 F2 A>A | G3 F G>A | F4 A>A | [EG]3 [EG] [EG]>[FA] | [GB]4 [EG]>[EG] | A3 A =B>B | [Ec]4 F>G | %13
 A3 A A>[_EFc] | c2 z2 z2 | F F3 A>G |[M:2/4] F4 |[M:1/4] A>A |[M:3/4] [FA] [EG]3 [GB]>[GB] | %19
 [GB] A3 c>c | cd cA A>F | [EG]4 [FA]>[FA] | [FA] [EG]3 [GB]>[GB] | [GB] A3 c>c | cd cA [EG]>[EG] | %25
[M:2/4] F4 |] %26
V:2
 z2 z2 [F,A,]>[F,B,F] | [F,CF]3 [F,CF] [F,DF]>[F,CF] | [CF]2 z2 z2 | [C,C]3 [C,B,] [D,A,]>[C,C] | %4
 [F,CF]4 [F,A,]>[F,B,F] | [F,CF]3 [F,CF] [F,DF]>[F,CF] | [CF]2 z2 z2 | %7
 [C,B,C]3 [C,A,C] [C,B,C]>[C,C] | [F,A,C]4 [F,CF]>[F,CF] | [C,C]3 [C,C] [C,C]>[C,C] | %10
 [C,C]4 [C,C]>[C,C] | [F,CF]3 [F,CF] [G,F]>[G,F] | [C,G,]4 [F,A,]>[F,B,F] | %13
 [F,CF]3 [F,CF] [F,CF]>A,, | z2[K:treble] B2[K:bass] [B,,B,]>[B,,B,] | %15
 [C,A,C] [C,A,C]3 [C,C]>[C,B,C] |[M:2/4] [F,A,C]4 |[M:1/4] [F,CF]>[F,CF] | %18
[M:3/4] [C,C] [C,C]3 [C,C]>[C,C] | [F,C] [F,CF]3 [F,A,F]>[F,A,F] | %20
 [F,A,F][F,B,F] [F,A,F][F,CF] [F,CF]>[F,A,] | [C,C]4 [F,C]>[F,C] | [C,C] [C,C]3 [C,C]>[C,C] | %23
 [F,C] [F,CF]3 [F,A,F]>[F,A,F] | [F,A,F][F,B,F] [F,A,F][F,CF] [C,B,]>[C,B,] |[M:2/4] [F,A,]4 |] %26
V:3
 x6 | x6 | F,2- [F,A,]2 [F,CF]>[F,CF] | x6 | x6 | x6 | F,2- [F,A,]2 [F,C]>[F,C] | x6 | x6 | x6 | %10
 x6 | x6 | x6 | x6 | B,,4[K:treble][K:bass] z2 | x6 |[M:2/4] x4 |[M:1/4] x2 |[M:3/4] x6 | x6 | x6 | %21
 x6 | x6 | x6 | x6 |[M:2/4] x4 |] %26
V:4
 x6 | x6 | x6 | x6 | x6 | x6 | x6 | x6 | x6 | x6 | x6 | x6 | x6 | x6 | [DF]4 [DG]>[DG] | x6 | %16
[M:2/4] x4 |[M:1/4] x2 |[M:3/4] x6 | x6 | x6 | x6 | x6 | x6 | x6 |[M:2/4] x4 |] %26

